X:1339
T:Bele-Bele
T:L'Amudar
C:Tradicional
S:Música Tradicional Asturiana, (C) Tello & Tito. Asturies, 2001.
S:http://pagina.de/MusTradAst <telloytito@asturies.org>
N:Ye un baille de movimientos bien cenciellos, que s'acompaña con pandereta tocada con una sola mano.
N:La so estructura y ritmu dexen a les clares la so pureza y antigüedá.
O:L.larón (Cangas del Narcea)
A:Asturies
Z:Dances y Bailes I
M:2/4
L:1/8
Q:1/4=168
W:Dicen que en la mar se ajunta
W:l'agua de todos los ríos,
W:también se van ajuntando
W:tus amores y los míos.
W:
W:Tienes el cuerpo bien hecho
W:y la ropa te ayuda,
W:macarenina del alma
W:viva la presencia tuya.
W:
W:Menea la ropa negra
W:y al sastre que la cortó,
W:tengo al mi amante de luto
W:antes de morirme yo.
W:
W:Dentro de mi pecho traigo
W:una arquita con dos llaves
W:los secretos de mipecho
W:nadie en el mundo lo sabe.
K:F
|AA AA|A2 Bc|d4|cc cd|e2 ed|c4|c2 cd|e2 ed|c4|BB Bc|d2 cB|A4-|A4|
|: GA Bc|cc cc|c3 B|A4 :|


